X:349
T:Soldiers Return,The. RH.349
R:strathspey
S:Rev.R.Harrison’s MS,c1815,Cumbria
O:England
A:Temple Sowerby,Cumbria
Z:vmp.Simon Wilson. Review PJH, 2008.
M:6/8
L:1/16
Q:3/8=90
K:D
A2|d/e/f3d2 B4d2|AF3A2 A4B2|\
A2F2A2 d4e2|f2g2a2 g2f2e2|!
d/e/f3d2 B4d2|AF3A2 A4A2|\
A2f2a2 g2f2e2|d4f2 d4:|!
|:A2|d3efg a4f2|b4g2 a4f2|\
d3efg a4f2|g4e2 b2g2e2|!
d3efg a4f2|b4g2 a4f2|\
(d2c2B2 A2B2c2|d2f2a2 g2f2e2)|!
d2B2B2 “~”B4d2|AF3″>”A2 A4″>”B2|\
A2″>”F2A2 d4e2|f2″>”g2a2 {a}g2″>”f2e2|!
d/e/f3d2 B4d2|A2″>”F2A2 A4″>”B2|\
A2”>”f2a2 g2f2e2|d4f2 d4:|

